**kern	**silbe	**harmony	**phrase	**leadinstrument	**rhyme	**timestamp	**harte
*ICvox	*	*M4/4	*	*	*	*	*M4/4
*VRlead	*	*	*	*	*	*	*
*Hstimme	*	*	*	*	*	*	*
*G:	*	*G:	*	*	*	*	*G:
*M4/4	*	*	*	*	*	*	*
*clefG2	*	*	*	*	*	*	*
r;	.	1r;	.	r	.	0	N.C.
=1	=1	=1	=1	=1	=1	=1	=1
*>Letter>A	*>Letter>A	*>Letter>A	*>Letter>A	*>Letter>A	*>Letter>A	*>Letter>A	*>Letter>A
*>Label>Intro	*>Label>Intro	*>Label>Intro	*>Label>Intro	*>Label>Intro	*>Label>Intro	*>Label>Intro	*>Label>Intro
1r	.	2GM	newline	guitar	.	0.325	G:maj
.	.	2DM	.	guitar	.	1.364	D:maj/3
=2	=2	=2	=2	=2	=2	=2	=2
1r	.	1CM	.	guitar	.	2.403	C:maj(9)/3
=3	=3	=3	=3	=3	=3	=3	=3
1r	.	2GM	.	guitar	.	4.481	G:maj
.	.	2DM	.	guitar	.	5.521	D:maj/3
=4	=4	=4	=4	=4	=4	=4	=4
1r	.	2.CM	.	guitar	.	6.56	C:maj(9)/3
.	.	4DM	.	guitar	.	8.118	D:maj/3
=5	=5	=5	=5	=5	=5	=5	=5
1r	.	2GM	newline	guitar	.	8.638	G:maj
.	.	2DM	.	guitar	.	9.635	D:maj/3
=6	=6	=6	=6	=6	=6	=6	=6
1r	.	2.CM	.	guitar	.	10.631	C:maj(9)/3
.	.	4DM	.	guitar	.	12.126	D:maj/3
=7	=7	=7	=7	=7	=7	=7	=7
1r	.	2GM	.	guitar	.	12.625	G:maj
.	.	2DM	.	guitar	.	13.622	D:maj/3
=8	=8	=8	=8	=8	=8	=8	=8
1r	.	2.CM	.	guitar	.	14.618	C:maj(9)/3
.	.	4DM	.	guitar	.	16.113	D:maj/3
=9	=9	=9	=9	=9	=9	=9	=9
*>Letter>B	*>Letter>B	*>Letter>B	*>Letter>B	*>Letter>B	*>Letter>B	*>Letter>B	*>Letter>B
*>Label>Chorus	*>Label>Chorus	*>Label>Chorus	*>Label>Chorus	*>Label>Chorus	*>Label>Chorus	*>Label>Chorus	*>Label>Chorus
1r	.	2GM	newline	guitar	.	16.612	G:maj
.	.	2DM	.	guitar	.	17.591	D:maj
=10	=10	=10	=10	=10	=10	=10	=10
1r	.	2.CM	.	guitar	.	18.571	C:maj(9)
.	.	4DM	.	guitar	.	20.04	D:maj
=11	=11	=11	=11	=11	=11	=11	=11
1r	.	2GM	.	guitar	.	20.529	G:maj
.	.	2DM	.	guitar	.	21.509	D:maj
=12	=12	=12	=12	=12	=12	=12	=12
1r	.	2.CM	.	guitar	.	22.488	C:maj(9)
.	.	4DM	.	guitar	.	23.957	D:maj
=13	=13	=13	=13	=13	=13	=13	=13
1r	.	2GM	newline	guitar	.	24.447	G:maj
.	.	2DM	.	guitar	.	25.409	D:maj
=14	=14	=14	=14	=14	=14	=14	=14
2dd	There	1CM	.	guitar	.	26.371	C:maj(9)
4.ff#	she	.	.	.	.	.	.
[8gg	goes	.	.	.	A	.	.
=15	=15	=15	=15	=15	=15	=15	=15
*>Letter>C2	*>Letter>C2	*>Letter>C2	*>Letter>C2	*>Letter>C2	*>Letter>C2	*>Letter>C2	*>Letter>C2
*>Label>Verse	*>Label>Verse	*>Label>Verse	*>Label>Verse	*>Label>Verse	*>Label>Verse	*>Label>Verse	*>Label>Verse
2.gg]	_	2Amm	newline	guitar	.	28.295	A:min7
.	.	2GM	.	guitar	.	29.272	G:maj
4r	.	.	.	.	.	.	.
=16	=16	=16	=16	=16	=16	=16	=16
4b	there	1CM	.	guitar	.	30.249	C:maj(9)
8dd	she	.	.	.	.	.	.
[8aa	goes	.	.	.	A	.	.
4aa]	_	.	.	.	.	.	.
8ff#	a-	.	.	.	.	.	.
[8gg	-gain	.	.	.	B	.	.
=17	=17	=17	=17	=17	=17	=17	=17
2.gg]	_	1DM	.	guitar	.	32.204	D:maj
4r	.	.	.	.	.	.	.
=18	=18	=18	=18	=18	=18	=18	=18
*>Letter>B	*>Letter>B	*>Letter>B	*>Letter>B	*>Letter>B	*>Letter>B	*>Letter>B	*>Letter>B
*>Label>Chorus	*>Label>Chorus	*>Label>Chorus	*>Label>Chorus	*>Label>Chorus	*>Label>Chorus	*>Label>Chorus	*>Label>Chorus
1r	.	2GM	newline	voice	.	34.159	G:maj
.	.	2DM	.	voice	.	35.136	D:maj
=19	=19	=19	=19	=19	=19	=19	=19
4b	ra-	2.CM	.	voice	.	36.113	C:maj(9)
4dd	-cing	.	.	.	.	.	.
4aa	through	.	.	.	.	.	.
[4ff#	my	4DM	.	voice	.	37.578	D:maj
=20	=20	=20	=20	=20	=20	=20	=20
8ff#]	_	2GM	.	voice	.	38.067	G:maj
[8gg	brain	.	.	.	B	.	.
2gg]	_	.	.	.	.	.	.
.	.	2DM	.	voice	.	39.044	D:maj
8r	.	.	.	.	.	.	.
8dd	and	.	.	.	.	.	.
=21	=21	=21	=21	=21	=21	=21	=21
8dd	I	2.CM	.	voice	.	40.02	C:maj(9)
8cc	_	.	.	.	.	.	.
8cc	just	.	.	.	.	.	.
8b	_	.	.	.	.	.	.
8b	can't	.	.	.	.	.	.
8g	_	.	.	.	.	.	.
8g	con-	4DM	.	voice	.	41.486	D:maj
8b	-tain	.	.	.	B	.	.
=22	=22	=22	=22	=22	=22	=22	=22
8cc	_	2GM	newline	voice	.	41.974	G:maj
4.b	_	.	.	.	.	.	.
4r	.	2DM	.	voice	.	42.956	D:maj
4dd	this	.	.	.	.	.	.
=23	=23	=23	=23	=23	=23	=23	=23
8dd	feel-	1CM	.	voice	.	43.937	C:maj(9)
8cc	_	.	.	.	.	.	.
8cc	-in	.	.	.	.	.	.
8b	_	.	.	.	.	.	.
4b	that	.	.	.	.	.	.
8g	re-	.	.	.	.	.	.
8b	-mains	.	.	.	B	.	.
=24	=24	=24	=24	=24	=24	=24	=24
*>Letter>C	*>Letter>C	*>Letter>C	*>Letter>C	*>Letter>C	*>Letter>C	*>Letter>C	*>Letter>C
*>Label>Verse	*>Label>Verse	*>Label>Verse	*>Label>Verse	*>Label>Verse	*>Label>Verse	*>Label>Verse	*>Label>Verse
8cc	_	2Amm	newline	voice	.	45.9	A:min7
8b	_	.	.	.	.	.	.
8cc	_	.	.	.	.	.	.
4.b	_	.	.	.	.	.	.
.	.	2GM	.	voice	.	46.876	G:maj
4r	.	.	.	.	.	.	.
=25	=25	=25	=25	=25	=25	=25	=25
1r	.	1CM	.	voice	.	47.853	C:maj(9)
=26	=26	=26	=26	=26	=26	=26	=26
2dd	There	2Amm	newline	voice	.	49.805	A:min7
4.ff#	she	2GM	.	voice	.	50.779	G:maj
[8gg	blows	.	.	.	A	.	.
=27	=27	=27	=27	=27	=27	=27	=27
2.gg]	_	1CM	.	voice	.	51.753	C:maj(9)
4r	.	.	.	.	.	.	.
=28	=28	=28	=28	=28	=28	=28	=28
4b	there	1DM	.	voice	.	53.7	D:maj
8dd	she	.	.	.	.	.	.
[8aa	blows	.	.	.	A	.	.
4aa]	_	.	.	.	.	.	.
8ff#	a-	.	.	.	.	.	.
[8gg	-gain	.	.	.	B	.	.
=29	=29	=29	=29	=29	=29	=29	=29
*>Letter>B	*>Letter>B	*>Letter>B	*>Letter>B	*>Letter>B	*>Letter>B	*>Letter>B	*>Letter>B
*>Label>Chorus	*>Label>Chorus	*>Label>Chorus	*>Label>Chorus	*>Label>Chorus	*>Label>Chorus	*>Label>Chorus	*>Label>Chorus
2.gg]	_	2GM	newline	voice	.	55.648	G:maj
.	.	2DM	.	voice	.	56.628	D:maj
4r	.	.	.	.	.	.	.
=30	=30	=30	=30	=30	=30	=30	=30
1r	.	2.CM	.	voice	.	57.607	C:maj(9)
.	.	4DM	.	voice	.	59.077	D:maj
=31	=31	=31	=31	=31	=31	=31	=31
4b	puls-	2GM	.	voice	.	59.567	G:maj
4dd	-cing	.	.	.	.	.	.
4aa	through	2DM	.	voice	.	60.546	D:maj
[4ff#	my	.	.	.	.	.	.
=32	=32	=32	=32	=32	=32	=32	=32
8ff#]	_	2.CM	.	voice	.	61.526	C:maj(9)
[8gg	brain	.	.	.	B	.	.
2gg]	_	.	.	.	.	.	.
8r	.	4DM	.	voice	.	62.996	D:maj
8cc	and	.	.	.	.	.	.
=33	=33	=33	=33	=33	=33	=33	=33
8dd	I	2GM	newline	voice	.	63.485	G:maj
8cc	_	.	.	.	.	.	.
8cc	just	.	.	.	.	.	.
8b	_	.	.	.	.	.	.
8b	can't	2DM	.	voice	.	64.443	D:maj
8g	_	.	.	.	.	.	.
8g	con-	.	.	.	.	.	.
8b	-tain	.	.	.	B	.	.
=34	=34	=34	=34	=34	=34	=34	=34
8cc	_	1CM	.	voice	.	65.4	C:maj(9)
4.b	_	.	.	.	.	.	.
4r	.	.	.	.	.	.	.
4dd	this	.	.	.	.	.	.
=35	=35	=35	=35	=35	=35	=35	=35
*>Letter>C	*>Letter>C	*>Letter>C	*>Letter>C	*>Letter>C	*>Letter>C	*>Letter>C	*>Letter>C
*>Label>Verse	*>Label>Verse	*>Label>Verse	*>Label>Verse	*>Label>Verse	*>Label>Verse	*>Label>Verse	*>Label>Verse
8dd	feel-	2Amm	newline	voice	.	67.315	A:min7
8cc	_	.	.	.	.	.	.
8cc	-in	.	.	.	.	.	.
8b	_	.	.	.	.	.	.
4b	that	2GM	.	voice	.	68.293	G:maj
8g	re-	.	.	.	.	.	.
8b	-mains	.	.	.	B	.	.
=36	=36	=36	=36	=36	=36	=36	=36
8cc	_	1CM	.	voice	.	69.271	C:maj(9)
8b	_	.	.	.	.	.	.
8cc	_	.	.	.	.	.	.
4.b	_	.	.	.	.	.	.
4r	.	.	.	.	.	.	.
=37	=37	=37	=37	=37	=37	=37	=37
1r	.	2Amm	newline	voice	.	71.227	A:min7
.	.	2GM	.	voice	.	72.208	G:maj
=38	=38	=38	=38	=38	=38	=38	=38
1r	.	1CM	.	voice	.	73.189	C:maj(9)
=39	=39	=39	=39	=39	=39	=39	=39
1r	.	1DM	.	voice	.	75.151	D:maj
=40	=40	=40	=40	=40	=40	=40	=40
*>Letter>B	*>Letter>B	*>Letter>B	*>Letter>B	*>Letter>B	*>Letter>B	*>Letter>B	*>Letter>B
*>Label>Chorus	*>Label>Chorus	*>Label>Chorus	*>Label>Chorus	*>Label>Chorus	*>Label>Chorus	*>Label>Chorus	*>Label>Chorus
1r	.	2GM	newline	guitar	.	77.113	G:maj
.	.	2DM	.	guitar	.	78.092	D:maj
=41	=41	=41	=41	=41	=41	=41	=41
1r	.	2.CM	.	guitar	.	79.071	C:maj(9)
.	.	4DM	.	guitar	.	80.54	D:maj
=42	=42	=42	=42	=42	=42	=42	=42
1r	.	2GM	.	guitar	.	81.03	G:maj
.	.	2DM	.	guitar	.	82.009	D:maj
=43	=43	=43	=43	=43	=43	=43	=43
1r	.	2.CM	.	guitar	.	82.988	C:maj(9)
.	.	4DM	.	guitar	.	84.456	D:maj
=44	=44	=44	=44	=44	=44	=44	=44
1r	.	2GM	newline	guitar	.	84.946	G:maj
.	.	2DM	.	guitar	.	85.914	D:maj
=45	=45	=45	=45	=45	=45	=45	=45
1r	.	1CM	.	guitar	.	86.881	C:maj(9)
=46	=46	=46	=46	=46	=46	=46	=46
*>Letter>C	*>Letter>C	*>Letter>C	*>Letter>C	*>Letter>C	*>Letter>C	*>Letter>C	*>Letter>C
*>Label>Verse	*>Label>Verse	*>Label>Verse	*>Label>Verse	*>Label>Verse	*>Label>Verse	*>Label>Verse	*>Label>Verse
1r	.	2Amm	newline	guitar	.	88.816	A:min7
.	.	2GM	.	guitar	.	89.786	G:maj
=47	=47	=47	=47	=47	=47	=47	=47
1r	.	1CM	.	guitar	.	90.755	C:maj(9)
=48	=48	=48	=48	=48	=48	=48	=48
1r	.	2Amm	newline	guitar	.	92.694	A:min7
.	.	2GM	.	guitar	.	93.679	G:maj
=49	=49	=49	=49	=49	=49	=49	=49
2dd	_	1CM	.	guitar	.	94.663	C:maj(9)
4.ff#	_	.	.	.	.	.	.
[8gg	_	.	.	.	.	.	.
=50	=50	=50	=50	=50	=50	=50	=50
2.gg]	_	1DM	.	guitar	.	96.632	D:maj
4r	.	.	.	.	.	.	.
=51	=51	=51	=51	=51	=51	=51	=51
*>Letter>D	*>Letter>D	*>Letter>D	*>Letter>D	*>Letter>D	*>Letter>D	*>Letter>D	*>Letter>D
*>Label>Bridge	*>Label>Bridge	*>Label>Bridge	*>Label>Bridge	*>Label>Bridge	*>Label>Bridge	*>Label>Bridge	*>Label>Bridge
4b	_	1Em	newline	voice	.	98.602	E:min
8dd	_	.	.	.	.	.	.
[8aa	_	.	.	.	.	.	.
4aa]	_	.	.	.	.	.	.
8ff#	_	.	.	.	.	.	.
[8gg	_	.	.	.	.	.	.
=52	=52	=52	=52	=52	=52	=52	=52
4.gg]	_	1CM	.	voice	.	100.56	C:maj
8dd	_	.	.	.	.	.	.
4dd	_	.	.	.	.	.	.
4ff#	_	.	.	.	.	.	.
=53	=53	=53	=53	=53	=53	=53	=53
4.gg	_	1Em	.	voice	.	102.517	E:min
8r	.	.	.	.	.	.	.
4dd	_	.	.	.	.	.	.
4ff#	_	.	.	.	.	.	.
=54	=54	=54	=54	=54	=54	=54	=54
4.gg	_	2CM	.	voice	.	104.475	C:maj
8r	.	.	.	.	.	.	.
8dd	_	4DM	.	voice	.	105.454	D:maj
8cc	_	.	.	.	.	.	.
8cc	_	4DMm	.	voice	.	105.944	D:7
8b	_	.	.	.	.	.	.
=55	=55	=55	=55	=55	=55	=55	=55
4b	_	2GM	newline	voice	.	106.433	G:maj
4dd	_	.	.	.	.	.	.
4aa	_	4DM	.	voice	.	107.401	D:maj(9)
[4ff#	_	4DMm	.	voice	.	107.885	D:7
=56	=56	=56	=56	=56	=56	=56	=56
8ff#]	_	2CMM	.	voice	.	108.369	C:maj7
[8gg	_	.	.	.	.	.	.
2gg]	_	.	.	.	.	.	.
.	.	4DM	.	voice	.	109.337	D:maj(9)
8r	.	4DMm	.	voice	.	109.821	D:7
8dd	_	.	.	.	.	.	.
=57	=57	=57	=57	=57	=57	=57	=57
8dd	_	2GM	.	voice	.	110.305	G:maj
8cc	_	.	.	.	.	.	.
8cc	_	.	.	.	.	.	.
8b	_	.	.	.	.	.	.
8b	_	4DM	.	voice	.	111.273	D:maj(9)
8g	_	.	.	.	.	.	.
8g	_	4DMm	.	voice	.	111.757	D:7
8b	_	.	.	.	.	.	.
=58	=58	=58	=58	=58	=58	=58	=58
8cc	_	2CMM	.	voice	.	112.241	C:maj7
4.b	_	.	.	.	.	.	.
4r	.	4DM	.	voice	.	113.209	D:maj(9)
4cc	_	4DMm	.	voice	.	113.693	D:7
=59	=59	=59	=59	=59	=59	=59	=59
8dd	_	1Amm	newline	voice	.	114.177	A:min7
8cc	_	.	.	.	.	.	.
8cc	_	.	.	.	.	.	.
8b	_	.	.	.	.	.	.
4b	_	.	.	.	.	.	.
8g	_	.	.	.	.	.	.
8b	_	.	.	.	.	.	.
=60	=60	=60	=60	=60	=60	=60	=60
8cc	_	1Emm	.	voice	.	116.118	E:min7
8b	_	.	.	.	.	.	.
8cc	_	.	.	.	.	.	.
4.b	_	.	.	.	.	.	.
4r	.	.	.	.	.	.	.
=61	=61	=61	=61	=61	=61	=61	=61
1r	.	1CM	newline	voice	.	118.059	C:maj6
=62	=62	=62	=62	=62	=62	=62	=62
2dd	_	1DM	.	voice	.	120.047	D:maj
4.ff#	_	.	.	.	.	.	.
[8gg	_	.	.	.	.	.	.
=63	=63	=63	=63	=63	=63	=63	=63
*>Letter>B	*>Letter>B	*>Letter>B	*>Letter>B	*>Letter>B	*>Letter>B	*>Letter>B	*>Letter>B
*>Label>Chorus	*>Label>Chorus	*>Label>Chorus	*>Label>Chorus	*>Label>Chorus	*>Label>Chorus	*>Label>Chorus	*>Label>Chorus
2.gg]	_	2GM	newline	voice	.	122.035	G:maj
.	.	2DM	.	voice	.	123.01	D:maj
4r	.	.	.	.	.	.	.
=64	=64	=64	=64	=64	=64	=64	=64
4b	_	2.CM	.	voice	.	123.985	C:maj(9)
8dd	_	.	.	.	.	.	.
[8aa	_	.	.	.	.	.	.
4aa]	_	.	.	.	.	.	.
8ff#	_	4DM	.	voice	.	125.448	D:maj
[8gg	_	.	.	.	.	.	.
=65	=65	=65	=65	=65	=65	=65	=65
2.gg]	_	2GM	.	voice	.	125.935	G:maj
.	.	2DM	.	voice	.	126.91	D:maj
4r	.	.	.	.	.	.	.
=66	=66	=66	=66	=66	=66	=66	=66
1r	.	2.CM	.	voice	.	127.885	C:maj(9)
.	.	4DM	.	voice	.	129.347	D:maj
=67	=67	=67	=67	=67	=67	=67	=67
4b	_	2GM	newline	voice	.	129.835	G:maj
4dd	_	.	.	.	.	.	.
4aa	_	2DM	.	voice	.	130.813	D:maj
[4ff#	_	.	.	.	.	.	.
=68	=68	=68	=68	=68	=68	=68	=68
8ff#]	_	1CM	.	voice	.	131.79	C:maj(9)
[8gg	_	.	.	.	.	.	.
2gg]	_	.	.	.	.	.	.
8r	.	.	.	.	.	.	.
8dd	_	.	.	.	.	.	.
=69	=69	=69	=69	=69	=69	=69	=69
*>Letter>C	*>Letter>C	*>Letter>C	*>Letter>C	*>Letter>C	*>Letter>C	*>Letter>C	*>Letter>C
*>Label>Verse	*>Label>Verse	*>Label>Verse	*>Label>Verse	*>Label>Verse	*>Label>Verse	*>Label>Verse	*>Label>Verse
8dd	_	2Amm	newline	voice	.	133.746	A:min7
8cc	_	.	.	.	.	.	.
8cc	_	.	.	.	.	.	.
8b	_	.	.	.	.	.	.
8b	_	2GM	.	voice	.	134.712	G:maj
8g	_	.	.	.	.	.	.
8g	_	.	.	.	.	.	.
8b	_	.	.	.	.	.	.
=70	=70	=70	=70	=70	=70	=70	=70
8cc	_	1CM	.	voice	.	135.677	C:maj(9)
4.b	_	.	.	.	.	.	.
4r	.	.	.	.	.	.	.
4dd	_	.	.	.	.	.	.
=71	=71	=71	=71	=71	=71	=71	=71
8dd	_	2Amm	newline	voice	.	137.608	A:min7
8cc	_	.	.	.	.	.	.
8cc	_	.	.	.	.	.	.
8b	_	.	.	.	.	.	.
4b	_	2GM	.	voice	.	138.589	G:maj
8g	_	.	.	.	.	.	.
8b	_	.	.	.	.	.	.
=72	=72	=72	=72	=72	=72	=72	=72
8cc	_	1CM	.	voice	.	139.57	C:maj(9)
8b	_	.	.	.	.	.	.
8cc	_	.	.	.	.	.	.
4.b	_	.	.	.	.	.	.
4r	.	.	.	.	.	.	.
=73	=73	=73	=73	=73	=73	=73	=73
1r	.	1DM	.	voice	.	141.532	D:maj
=74	=74	=74	=74	=74	=74	=74	=74
*>Letter>B	*>Letter>B	*>Letter>B	*>Letter>B	*>Letter>B	*>Letter>B	*>Letter>B	*>Letter>B
*>Label>Chorus	*>Label>Chorus	*>Label>Chorus	*>Label>Chorus	*>Label>Chorus	*>Label>Chorus	*>Label>Chorus	*>Label>Chorus
1r	.	2GM	newline	voice	.	143.494	G:maj
.	.	2DM	.	voice	.	144.475	D:maj
=75	=75	=75	=75	=75	=75	=75	=75
1r	.	2.CM	.	voice	.	145.457	C:maj(9)
.	.	4DM	.	voice	.	146.93	D:maj
=76	=76	=76	=76	=76	=76	=76	=76
1r	.	2GM	.	voice	.	147.421	G:maj
.	.	2DM	.	voice	.	148.402	D:maj
=77	=77	=77	=77	=77	=77	=77	=77
1r	.	2.CM	.	voice	.	149.384	C:maj(9)
.	.	4DM	.	voice	.	150.857	D:maj
=78	=78	=78	=78	=78	=78	=78	=78
1r	.	2GM	newline	voice	.	151.348	G:maj
.	.	2DM	.	voice	.	152.342	D:maj
=79	=79	=79	=79	=79	=79	=79	=79
1r	.	1CM	.	voice	.	153.336	C:maj(9)
=80	=80	=80	=80	=80	=80	=80	=80
1r	.	1GM	.	voice	.	155.324	G:maj
r;	.	1r;	.	r	.	160.543	N.C.
r;	.	1r;	.	r	.	162.56	N.C.
*-	*-	*-	*-	*-	*-	*-	*-
!!!BillboardChartDate: 1991/07/27
!!!BillboardPeak: 49
!!!BillboardWeeksOnChart: 10
!!!COC: The La's
!!!ENC: Nathaniel Condit-Schultz
!!!EST: Awating manual error checking and editing.
!!!OTL: There She Goes
!!!RDF**chordsym: original McGill chord annotation + (implied pitch class set, with bass pitch in first position)
!!!RDF**harmony: **recip + pitch class of root + harmonic quality
!!!RDF**leadinstrument: original McGill primary instrumentation annotation
!!!RDF**phrase: newline = linebreak in original McGill transcription
!!!RDF**timestamp: McGill audio timestamp in seconds
!!!RDT: 2017/01/12/
!!!SampleActualRank: 80
!!!SampleID#: 1289
!!!SampleTargetRank: 80
